files/icons/copy.svg

<svg width="22" height="26" viewBox="0 0 22 26" fill="none" xmlns="http://www.w3.org/2000/svg">
<path fill-rule="evenodd" clip-rule="evenodd" d="M21.1162 7.96576C21.1162 6.08296 19.5899 4.55664 17.7071 4.55664H8.61609C6.73329 4.55664 5.20697 6.08296 5.20697 7.96576V21.6023C5.20697 23.4851 6.73329 25.0114 8.61609 25.0114H17.7071C19.5899 25.0114 21.1162 23.4851 21.1162 21.6023V7.96576ZM18.8435 7.96576C18.8435 7.33817 18.3347 6.82939 17.7071 6.82939H8.61609C7.9885 6.82939 7.47972 7.33817 7.47972 7.96576V21.6023C7.47972 22.2299 7.9885 22.7386 8.61609 22.7386H17.7071C18.3347 22.7386 18.8435 22.2299 18.8435 21.6023V7.96576Z" fill="white"/>
<path d="M4.07074 2.28398H15.4345C16.0621 2.28398 16.5709 1.7752 16.5709 1.1476C16.5709 0.520008 16.0621 0.0112305 15.4345 0.0112305H4.07074C2.18794 0.0112305 0.661621 1.53755 0.661621 3.42035V19.3296C0.661621 19.9572 1.1704 20.466 1.798 20.466C2.42559 20.466 2.93437 19.9572 2.93437 19.3296V3.42035C2.93437 2.79276 3.44315 2.28398 4.07074 2.28398Z" fill="white"/>
</svg>

<svg width="22" height="26" fill="none" xmlns="http://www.w3.org/2000/svg">
  <path fill-rule="evenodd" clip-rule="evenodd" d="M21.116 7.966a3.41 3.41 0 0 0-3.409-3.41h-9.09a3.41 3.41 0 0 0-3.41 3.41v13.636a3.41 3.41 0 0 0 3.41 3.41h9.09a3.41 3.41 0 0 0 3.41-3.41V7.966Zm-2.273 0c0-.628-.508-1.137-1.136-1.137h-9.09c-.629 0-1.137.51-1.137 1.137v13.636c0 .628.508 1.137 1.136 1.137h9.091c.628 0 1.136-.51 1.136-1.137V7.966Z" fill="#fff"/>
  <path d="M4.07 2.284h11.364a1.136 1.136 0 0 0 0-2.273H4.072a3.41 3.41 0 0 0-3.41 3.41V19.33a1.136 1.136 0 0 0 2.273 0V3.42c0-.627.51-1.136 1.137-1.136Z" fill="#fff"/>
</svg>
